X:1
T:Press On, Press On, Ye Workers
T:John Robson Sweney
T:Press On, Press On, Ye Workers
T:Public Domain
T:Public Domain
T:Public Domain
C:John Robson Sweney
Z:Public Domain
%%score ( 1 2 ) ( 3 4 )
L:1/8
M:4/4
K:Ab
V:1 treble 
V:2 treble 
V:3 bass 
V:4 bass 
V:1
 [CE]2 | [CA]3 [DB] [Ec]2 [DB]2 | ([CA]2 E2) C2 E2 | [EA]3 [EA] [EB]2 [EB]2 | [Ec]6 [Ec]2 | %5
w: 1.~Press|on, press on, ye|work- * ers, Be|and true: Great things|the Lord|
w: 2.~The|walls of leagued op-|press- * ion To|a- way; The sword|of truth|
w: 3.~Be-|hold her march- ing|on- * ward, In|sub- lime, A- long|the roll-|
 [Ed]3 [Ed] [Ed]2 [Ed]2 | [Ec]4 [EA]2 [Ec]2 | [EB]2 [=DA]2 [EG]2 [DF]2 | E6 E2 | %9
w: is do- ing, And|grea- ter things|will do; His ar-|my, still|
w: e- ter- nal, No|pow’r on earth|can stay; Tho’ all|the hosts|
w: ing prai- ries That|bound our west-|ern clime; And soon|from ev-|
 E2 [=DF]2 [_DG]2 [DE]2 | [CA]4 [CA]2 [EA]2 | [EB]3 E E2 E2 | [Ec]6 [_Gc]2 | %13
w: ing With each re-|ing year, Shall|send a sound of|That all|
w: ness Were mar- shaled|the field, The|Church of God would|With Christ|
w: let On all our|fron- tier Glad|songs shall rise to|the skep-|
 [Fd]3 [Fd] [Fd]2 [Fd]2 | [Fd]2 [Ec]2 [DB]2 [CA]2 | [Ec]3 [DB] [EA]2 [DG]2 | [CA]6 || %17
w: the world shall hear.|Re- joice, re- joice,|ye work- ers all,|re-|
w: her strength and shield.||||
w: tics turn to hear.||||
"^Refrain" e2 | (z2 G2 G2) [DG]2 | C3 C C2 [CE]2 | [DF]2 [EG]2 [FA]2 [FB]2 | [=Ec]6 [Ec]2 | %22
w: joice!|* * O|* * * your|and sing, O clap|your hands|
w: |||||
w: |||||
 [Ed]2 [EB]2 [EG]2 E2 | (E3 E E2) [Ec]2 | [EB]2 [Ge]2 [Ge]2 [A=d]2 | [Ge]6 E2 | %26
w: and sing! God’s ho-|Church * * shall|umph yet, Tri- umph|yet, tri-|
w: ||||
w: ||||
 E2 [Ed]2 [Ec]2 [DB]2 | [CA]3 [CA] [CA]2 z2 | [EB]3 [EB] [EB]2 z2 | [Ec]2 [Ed]2 [Ee]2 [Ae]2 | %30
w: yet, And He shall|our King, Shall|reign our King.||
w: ||||
w: ||||
 [Af]3 [Af] [Af]2 [Af]2 | [Ae]6 [Ae]2 | [Ge]4 [EG]4 | [EA]6 |] %34
w: ||||
w: ||||
w: ||||
V:2
 x2 | x8 | x2 E2 C2 E2 | x8 | x8 | x8 | x8 | x8 | E6 E2 | E2 x6 | x8 | x3 E E2 E2 | x8 | x8 | x8 | %15
w: ||loy- al, brave||||||in- creas-|volv-||rap- ture forth||||
w: ||dust shall fall||||||of dark-|on||stand un- moved,||||
w: ||ma- jes- ty||||||ery ham-|vast||Je- sus, While||||
 x8 | x6 || x2 | e6 x2 | A6 x2 | x8 | x8 | x6 E2 | A6 x2 | x8 | x6 E2 | E2 x6 | x8 | x8 | x8 | x8 | %31
w: |||clap|hands|||ly|tri-||umph|reign|||||
w: ||||||||||||||||
w: ||||||||||||||||
 x8 | x8 | x6 |] %34
w: |||
w: |||
w: |||
V:3
 [A,,A,]2 | [A,,E,]3 [A,,E,] [A,,A,]2 [E,G,]2 | (A,2 E,2) C,2 E,2 | %3
w: ~|~ ~ ~ ~|~ * ~ ~|
 [C,A,]3 [C,A,] [E,G,]2 [E,G,]2 | A,6 A,2 | [G,B,]3 [G,B,] [G,B,]2 [G,B,]2 | A,4 [A,,C]2 [A,,A,]2 | %7
w: ~ ~ ~ ~|~ ~|~ ~ ~ ~|~ ~ ~|
 [B,,G,]2 [B,,F,]2 [B,,B,]2 [B,,A,]2 | [E,G,]6 [E,G,]2 | [E,G,]2 [E,A,]2 [E,B,]2 [G,B,]2 | %10
w: ~ ~ ~ ~|~ ~|~ ~ ~ ~|
 A,4 [A,,A,]2 [C,A,]2 | [E,G,]3 [G,B,] [G,B,]2 [G,B,]2 | A,6 A,2 | [D,A,]3 [D,A,] [D,A,]2 [D,A,]2 | %14
w: ~ ~ ~|~ ~ ~ ~|~ ~|~ ~ ~ Re-|
 [B,,B,]2 [C,A,]2 [D,F,]2 E,2 | [E,A,]3 [E,D] [E,C]2 [E,B,]2 | [A,,A,]6 || z2 | %18
w: joice, re- joice, re-|~ ~ ~ ~|~||
 z2 [E,B,]2 [E,B,]2 [E,B,]2 | [A,,A,]3 [A,,E,] [A,,E,]2 [A,,A,]2 | %20
w: ~ ~ ~|~ ~ ~ ~|
 [D,A,]2 [D,A,]2 [D,A,]2 [D,F,]2 | [C,G,]6 [C,G,]2 | [E,G,]2 [E,G,]2 [E,B,]2 [G,D]2 | %23
w: and sing, * *|||
 [A,C]3 [A,C] [A,C]2 [A,,A,]2 | [B,,G,]2 [B,,B,]2 [B,,B,]2 [B,,B,]2 | [E,B,]6 [E,G,]2 | %26
w: |||
 [E,G,]2 [E,B,]2 [E,A,]2 [E,G,]2 | [A,,A,]3 [A,,E,] [A,,E,]2 z2 | [E,G,]3 [E,G,] [E,G,]2 z2 | %29
w: |||
 A,2 [A,B,]2 [A,C]2 [A,C]2 | [D,D]3 [D,D] [D,D]2 [D,D]2 | [A,C]6 [A,C]2 | [E,B,]4 [E,D]4 | %33
w: ||||
 [A,,C]6 |] %34
w: |
V:4
 x2 | x8 | A,2 E,2 C,2 E,2 | x8 | A,6 A,2 | x8 | A,4 x4 | x8 | x8 | x8 | A,4 x4 | x8 | A,6 A,2 | %13
w: ||~ ~ ~ ~||~ ~||~||||~||~ ~|
 x8 | x6 E,2 | x8 | x6 || x2 | x8 | x8 | x8 | x8 | x8 | x8 | x8 | x8 | x8 | x8 | x8 | A,2 x6 | x8 | %31
w: |joice|||||||||||||||||
 x8 | x8 | x6 |] %34
w: |||

